Adwaita++/apps/scalable/qt-linguist.svg

<svg height="128" width="128" xmlns="http://www.w3.org/2000/svg" xmlns:xlink="http://www.w3.org/1999/xlink">
  <linearGradient id="e" gradientTransform="matrix(1.0015 0 0 .99993 72.09 -115.985)" gradientUnits="userSpaceOnUse" x1="43.844" x2="-60" y1="234" y2="234">
    <stop offset="0" stop-color="#57e389"/>
    <stop offset=".038" stop-color="#8ff0a4"/>
    <stop offset=".077" stop-color="#26a269"/>
    <stop offset=".923" stop-color="#26a269"/>
    <stop offset=".962" stop-color="#8ff0a4"/>
    <stop offset="1" stop-color="#57e389"/>
  </linearGradient>
  <rect fill="url(#e)" height="48" rx="8" width="104" x="12" y="68"/>
  <path d="m20 10c-4.432 0-8 3.568-8 8v42 42c0 4.432 3.568 8 8 8h44 44c4.432 0 8-3.568 8-8v-42-42c0-4.432-3.568-8-8-8z" fill="#33d17a"/>
  <path d="m49.939778 31.94344c-6.028399 0-10.899225 2.193109-14.601867 6.578888-4.224389 4.997725-6.337911 11.770721-6.337911 20.337998 0 6.374611 1.22257 11.916193 3.690703 16.607502 3.749953 6.986558 9.512172 10.470329 17.249075 10.470329 1.671804 7.465417 6.283083 11.392229 17.129249 9.747403v-5.415569c-5.049017.465594-6.145571-2.309398-6.539093-7.220459v-.321007c1.519259-.969213 2.897912-2.171444 4.131978-3.650467 4.034704-4.844739 6.057582-11.599163 6.057582-20.217731 0-6.425459-1.28801-11.955986-3.851208-16.647297-3.797263-6.833571-9.428603-10.26959-16.928508-10.26959zm40.636204 2.16658-7.621499.200298-2.527382 11.954218h-5.415568v8.945324h4.974292v17.129249c0 4.69131.668988 7.981416 1.965841 9.867669 1.632452 2.499081 5.099864 3.731379 10.42921 3.731379 1.777037 0 3.978111-.241862 6.619124-.802519v-8.504489c-1.824349.101699-3.179567.160505-4.091299.160505-1.488751 0-2.54507-.252032-3.169399-.762283-.768471-.611949-1.16332-2.194437-1.16332-4.693521v-16.12599h7.862478v-8.945324h-7.862478zm-40.636204 7.862034c5.886023.000441 8.825057 5.647257 8.825057 16.968303 0 11.321488-2.939034 17.008983-8.825057 17.008983-5.980646 0-8.985118-5.716677-8.985118-17.089014 0-.45896 0-.904657 0-1.36406.284308-10.351834 3.289222-15.52377 8.985118-15.524212z" fill="#f6f5f4"/>
  <path d="m84 72c-4.432 0-8 3.568-8 8v14 16h18 14c4.432 0 8-3.568 8-8v-8-14-8z" fill="#5e5c64"/>
  <path d="m96 76c-8.272 0-15 6.727999-15 14.999999 0 8.272001 6.728 15.000001 15 15.000001s15-6.728 15-15.000001c0-8.272-6.728-14.999999-15-14.999999zm-2.464844 2.242187c-3.034156 3.68996-4.717894 7.810888-4.945314 11.757813h-5.539062c.447424-5.894445 4.79538-10.67014 10.484376-11.757813zm4.92578 0c5.688984 1.08767 10.036934 5.863393 10.484384 11.757813h-5.53907c-.2268-3.947581-1.91138-8.069687-4.945314-11.757813zm-2.460936.238281c3.34346 3.631996 5.1549 7.739528 5.40625 11.519532h-10.816408c.251994-3.781755 2.06728-7.887493 5.410158-11.519532zm-12.964844 13.519532h5.5625c.256432 3.986262 1.885128 8.062 4.941406 11.76953a12.984 12.984 0 0 1 -10.503906-11.76953zm7.566406 0h10.792968c-.27756 3.85005-2.01851 7.861808-5.398436 11.52344-3.379242-3.661652-5.117414-7.675056-5.394532-11.52344zm12.796878 0h5.54688c-.44745 5.894446-4.79537 10.67408-10.484384 11.76172 3.052294-3.70622 4.681454-7.778762 4.937504-11.76172z" fill="#f6f5f4"/>
</svg>

<svg xmlns="http://www.w3.org/2000/svg" xmlns:xlink="http://www.w3.org/1999/xlink" width="128" height="128" version="1.0">
 <defs>
  <linearGradient id="a">
   <stop id="stop2" offset="0" stop-color="#68676b"/>
   <stop id="stop4" offset=".8" stop-color="#424048"/>
   <stop id="stop6" offset="1" stop-color="#241f31"/>
  </linearGradient>
  <radialGradient id="d" cx="279.422" cy="446.483" r="224" fx="279.422" fy="446.483" gradientTransform="matrix(1.34416 .0006 -.00062 1.38763 -121.22 -718.103)" gradientUnits="userSpaceOnUse" xlink:href="#a"/>
  <linearGradient id="e" x1="43.844" x2="-60" y1="234" y2="234" gradientTransform="matrix(1.0015,0,0,0.99993,72.09,-115.985)" gradientUnits="userSpaceOnUse" xlink:href="#b"/>
  <linearGradient id="b">
   <stop id="stop11" offset="0" stop-color="#d5d3cf" style="stop-color:#57e389"/>
   <stop id="stop13" offset=".038" stop-color="#e3e2df" style="stop-color:#8ff0a4"/>
   <stop id="stop15" offset=".077" stop-color="#c0bfbc" style="stop-color:#26a269"/>
   <stop id="stop17" offset=".923" stop-color="#c0bfbc" style="stop-color:#26a269"/>
   <stop id="stop19" offset=".962" stop-color="#e3e2df" style="stop-color:#8ff0a4"/>
   <stop id="stop21" offset="1" stop-color="#d5d3cf" style="stop-color:#57e389"/>
  </linearGradient>
 </defs>
 <rect width="104" height="48" x="12" y="68" rx="8" ry="8" style="fill:url(#e)"/>
 <path d="m 20,10 c -4.432,0 -8,3.568 -8,8 v 42 42 c 0,4.432 3.568,8 8,8 h 44 44 c 4.432,0 8,-3.568 8,-8 V 60 18 c 0,-4.432 -3.568,-8 -8,-8 z" style="fill:#33d17a"/>
 <path d="m 49.939778,31.94344 c -6.028399,0 -10.899225,2.193109 -14.601867,6.578888 C 31.113522,43.520053 29,50.293049 29,58.860326 c 0,6.374611 1.22257,11.916193 3.690703,16.607502 3.749953,6.986558 9.512172,10.470329 17.249075,10.470329 1.671804,7.465417 6.283083,11.392229 17.129249,9.747403 v -5.415569 c -5.049017,0.465594 -6.145571,-2.309398 -6.539093,-7.220459 v -0.321007 c 1.519259,-0.969213 2.897912,-2.171444 4.131978,-3.650467 4.034704,-4.844739 6.057582,-11.599163 6.057582,-20.217731 0,-6.425459 -1.28801,-11.955986 -3.851208,-16.647297 C 63.071023,35.379459 57.439683,31.94344 49.939778,31.94344 Z m 40.636204,2.16658 -7.621499,0.200298 -2.527382,11.954218 h -5.415568 v 8.945324 h 4.974292 v 17.129249 c 0,4.69131 0.668988,7.981416 1.965841,9.867669 1.632452,2.499081 5.099864,3.731379 10.42921,3.731379 1.777037,0 3.978111,-0.241862 6.619124,-0.802519 v -8.504489 c -1.824349,0.101699 -3.179567,0.160505 -4.091299,0.160505 -1.488751,0 -2.54507,-0.252032 -3.169399,-0.762283 -0.768471,-0.611949 -1.16332,-2.194437 -1.16332,-4.693521 V 55.20986 h 7.862478 v -8.945324 h -7.862478 z m -40.636204,7.862034 c 5.886023,4.41e-4 8.825057,5.647257 8.825057,16.968303 0,11.321488 -2.939034,17.008983 -8.825057,17.008983 -5.980646,0 -8.985118,-5.716677 -8.985118,-17.089014 0,-0.45896 0,-0.904657 0,-1.36406 0.284308,-10.351834 3.289222,-15.52377 8.985118,-15.524212 z" style="isolation:isolate;fill:#f6f5f4"/>
 <path d="m 84,72 c -4.432,0 -8,3.568 -8,8 v 14 16 h 18 14 c 4.432,0 8,-3.568 8,-8 V 94 80 72 Z" style="fill:#5e5c64"/>
 <path style="fill:#f6f5f4" d="M 96,76 C 87.728,76 81,82.727999 81,90.999999 81,99.272 87.728,106 96,106 c 8.272,0 15,-6.728 15,-15.000001 C 111,82.727999 104.272,76 96,76 Z m -2.464844,2.242187 C 90.501,81.932147 88.817262,86.053075 88.589842,90 H 83.05078 c 0.447424,-5.894445 4.79538,-10.67014 10.484376,-11.757813 z m 4.92578,0 C 104.14992,79.329857 108.49787,84.10558 108.94532,90 h -5.53907 c -0.2268,-3.947581 -1.91138,-8.069687 -4.945314,-11.757813 z M 96,78.480468 C 99.34346,82.112464 101.1549,86.219996 101.40625,90 H 90.589842 C 90.841836,86.218245 92.657122,82.112507 96,78.480468 Z M 83.035156,92 h 5.5625 c 0.256432,3.986262 1.885128,8.062 4.941406,11.76953 A 12.984,12.984 0 0 1 83.035156,92 Z m 7.566406,0 h 10.792968 c -0.27756,3.85005 -2.01851,7.861808 -5.398436,11.52344 C 92.616852,99.861788 90.87868,95.848384 90.601562,92 Z m 12.796878,0 h 5.54688 c -0.44745,5.894446 -4.79537,10.67408 -10.484384,11.76172 C 101.51323,100.0555 103.14239,95.982958 103.39844,92 Z"/>
</svg>
